X:19
T:Bass Catcher's Hornpipe
R:hp
C:Bruce Osborne - June  2000
Z:abc by bosborne@kos.net
M:4/4
L:1/8
K:Amaj
EF|A2 cA EAcf|ecfc ecAc|BEcE dEcE|BEcE B2 EF|\
A2 cA EAcf|ecfc ecAc|BEcE dEcE|BEGB A2:|
|:GA|BEEE BE (3EFG|BEcE dEcE|BE (3EFG BEcE|dEcE B2 GA|\
BEEE BE (3EFG|BEcE dEcE|BE (3EFG BEcE|BEGB A2:|
